X: 93
M:6/8
L:1/8
K:Bm
"B MINOR"K(d/c/)|BAF BAF|BAF B2c|dB(B {c}B)^AB|cAF Fdc|\
uc|d2e fdB|c2d ecA|d2e fdB|ce(c {c}B)AF|\
d2e fdB|c2d ecA|fed cdc|(cB)B B2:|


